Adwaita++/actions/22/ledger.svg

<svg height="22" width="22" xmlns="http://www.w3.org/2000/svg">
  <path d="m6.5 3c-.831 0-1.5.669-1.5 1.5v.5 2 2 2 2 2 2 .5c0 .831.669 1.5 1.5 1.5h8.5.5c.831 0 1.5-.669 1.5-1.5v-.5-2-2-2-2-2-2-.5c0-.831-.669-1.5-1.5-1.5h-.5zm6.908203 4c.121364 0 .241698.046385.335938.140625l1.115234 1.1152344c.18848.18848.18848.4853581 0 .6738281l-.9375.9296875-1.78125-1.78125.929687-.9375c.094235-.094235.216527-.140625.337891-.140625zm-1.974609 1.7851562 1.78125 1.7812498-4.433594 4.433594h-1.78125v-1.78125z" fill="#444"/>
</svg>

<svg xmlns="http://www.w3.org/2000/svg" width="22" height="22" version="1.1">
 <defs>
  <style id="current-color-scheme" type="text/css">
   .ColorScheme-Text { color:#444444; } .ColorScheme-Highlight { color:#4285f4; }
  </style>
 </defs>
 <path style="fill:currentColor" class="ColorScheme-Text" d="M 6.5 3 C 5.669 3 5 3.669 5 4.5 L 5 5 L 5 7 L 5 9 L 5 11 L 5 13 L 5 15 L 5 17 L 5 17.5 C 5 18.331 5.669 19 6.5 19 L 15 19 L 15.5 19 C 16.331 19 17 18.331 17 17.5 L 17 17 L 17 15 L 17 13 L 17 11 L 17 9 L 17 7 L 17 5 L 17 4.5 C 17 3.669 16.331 3 15.5 3 L 15 3 L 6.5 3 z M 13.408203 7 C 13.529567 7 13.649901 7.046385 13.744141 7.140625 L 14.859375 8.2558594 C 15.047855 8.4443394 15.047855 8.7412175 14.859375 8.9296875 L 13.921875 9.859375 L 12.140625 8.078125 L 13.070312 7.140625 C 13.164547 7.04639 13.286839 7 13.408203 7 z M 11.433594 8.7851562 L 13.214844 10.566406 L 8.78125 15 L 7 15 L 7 13.21875 L 11.433594 8.7851562 z"/>
</svg>
